src/svgs/stairs.svg

<svg xmlns="http://www.w3.org/2000/svg" viewBox="0 0 24 24" width="512" height="512" aria-labelledby="kustairs-desc kustairs-title"><title id="kustairs-title">Stairs Icon</title><desc id="kustairs-desc">A picture depicting a staircase with railings in a building.</desc><path d="M22 6v16H2v-4h5v-4h5v-4h5V6zm-4.275-4.016L1.992 12.619l.56.828L4 12.468V16h1v-4.208l4-2.7V12h1V8.412l4-2.7V8h1V5.033l3.284-2.221z"/></svg>

<svg xmlns="http://www.w3.org/2000/svg" viewBox="0 0 24 24"><path d="M22,6V22H2V18H7V14h5V10h5V6ZM17.725,1.984,1.992,12.619l.56.828L4,12.468V16H5V11.792l4-2.7V12h1V8.412l4-2.7V8h1V5.033l3.284-2.221Z"/></svg>
